X: 1
T:Bacca Pipes, Hinton
M:6/8
L:1/8
Q:132
A:Hinton
P:A(AB2)6A
K:ADOR
P:A
|:B|c2B cde|d2B BAB|c2A AGA|G2E E2B|
c2B cde|d2B BAB|c3  B3 |A3  A2:|
P:B
d|g2a gfe|d2B B2d|g2a g2a|bag e2f|
g2a gfe|d2B B2d|c3  B3 |A3  A2||
